X:173
T:Take Five
C:composed by Paul Desmond, with Dave Brubeck Quartet
N:arr. by S.M. Block 5/22/2017
L:1/8
Q:1/4=200
M:5/4
K:G
z8 z2 | z8 z2 | z8 z2 | z6 EF GA |: "Em"^AB A=A GE "Bm7"A,/B,3/2 D2 | "Em"EE2E E2 "Bm7"(3EFE D2 | 
"Em"EE2E E2 "Bm7"(3DED A,2 | "Em"B,B,2B, B,2 "Bm7"EF GA | "Em"^AB A=A GE "Bm7"A,/B,3/2 D2 | 
"Em"EE2E E2 "Bm7"(3EFE D2 | "Em"EE2E E2 "Bm7"(3DED A,2 | "Em"B,B,2B, B,2 "Bm7"[E2B,2] [E2B,2] | 
"CM7"eg2e c2 "Am6"AB c^c | "Bm7"df2d B2 "Em7"G^G AB | "Am7"ce2c A2 "D7"FG ^GA | 
"GM7"BA Bc d2 d^c d^d | "CM7"eg2e c2 "Am6"AB c^c | "Bm7"df2d B2 "Em7"G^G AB | 
"Am7"ce2c A2 "D7"FA dc |1 B2 BA GF "B7"EF GA :|2 B8 z2 | 


